images/code.svg

<svg viewBox="0 0 14 16" xmlns="http://www.w3.org/2000/svg"><path d="m9.5 3-1.5 1.5 3.5 3.5-3.5 3.5 1.5 1.5 4.5-5zm-5 0-4.5 5 4.5 5 1.5-1.5-3.5-3.5 3.5-3.5z"/></svg>

<svg xmlns="http://www.w3.org/2000/svg" viewBox="0 0 14 16">
  <path fill="#000" d="M9.5 3L8 4.5 11.5 8 8 11.5 9.5 13 14 8 9.5 3zm-5 0L0 8l4.5 5L6 11.5 2.5 8 6 4.5 4.5 3z" />
</svg>
